X: 3325
T:Gan Ainm
R:Jig (Slide)
S:Jim Mulqueeny, Clare (fiddle).
H:'c's and 'f's very mobile
H:Slightly strange sequence of parts. Below is what is actually fully play
H:.
D:A mysterious tape
Z:Bernie Stocks
M:6/8
L:1/8
K:G
G2D GBd|edc (3BcB A|G2D GBd|e2f g2D|!
G3 -GBd|gfe dBA|BGE GAB|cdc (3BcB A||!
|:BGE EDE|GFE DB,D|BGE GAB|cdc (3BcB A|!
BGE EDE|GFE DB,D|GBG AGA|BGG G2A :G2D GBd|!
edc (3BcB A|G2D GBd|e2f g2D|G2D GBd|!
edc (3BcB A|BGE GAB|cdc (3BcB A|G2D GBd|!
edc (3BcB A|G2D GBd|e2f g2D|G3 -GBd|!
gfe dBA|BGE GAB|cdc (3BcB A||
